!!!ONB: MCCC : IFS0582_04 : Extracted Monophonic Melody
!!!COM: Schubert, Franz
!!!OPR: Piano Sonata in B major
!!!OMV: 4
!!!SCT: D.575 (published as Op.posth.147)
!!!ODT: 1817///
**kern
*staff1
*clefG2
*k[f#c#g#d#a#]
*B:
*M3/8
16dd#
16ee
=1
4ff#
16cc#
16dd#
=2
4ee
16b
16cc#
=3
4dd#
8cc#
=4
4b
8a#
=5
8g#
8cc#
8a#
=6
4b
8cc#
=7
8dd#
8gg#
8ee#
=8
4ff#
16cc#
16dd#
=9
4ee
8dd#
=10
4cc#
8b
=11
8b
8dd#
8cc#
=12
4b
16dd#
16ee
=13
4.ff#
=14
4.ff#[
=15
4.ff#]
=16
8ee
8ff#
8ff##
=17
4.aa
=18
8bb
8aa
8gg#
=19
4.aa
=20
8ff##
8ff#
8ee
=21
4.dd[
=22
8dd]
8b
8cc#
=23
4.dd[
=24
8dd]
8b
8cc#
=25
8dd
8b
8cc#
=26
8dd
8b
8cc#
=27
8dd
8b
8cc#
=28
8dd
8r
16b
16cc#
=29
4dd#
8cc#
=30
4b
8a#
=31
8g#
8cc#
8a#
=32
4b
8cc#
=33
8dd#
8gg#
8ee#
=34
4ff#
16cc#
16dd#
=35
4ee
8dd#
=36
4cc#
8b
=37
8b
8dd#
8cc#
=38
4b
16b
16cc#
=39
8dd#
8gg#
8ee#
=40
4ff#
8r
=41
8b
8dd#
8cc#
=42
4b
16b
16cc#
=43
8dd#
8gg#
8ee#
=44
4ff#
8r
=45
8b
8ff#
8a#
=46
4b
16g#
16a#
=47
8b
8dd#
8a#
=48
8g#
8b
8f#
=49
8e#
8g#
8d#
=50
4c#
8r
=51
8cc#
8dd#
8b#
=52
4cc#
8ff#
=53
4ff#
8cc#
=54
4cc#
8r
=55
8cc#
8dd#
8b#
=56
4cc#
8gg#
=57
4gg#
8cc#
=58
4cc#
8r
=59
8cc#
8dd#
8b#
=60
4cc#
8aa#
=61
8a#
8b
8a
=62
4a#
8ff#
=63
8f#
8g#
8e#
=64
4f#
8dd#
=65
4cc#
8a
=66
4a#
8r
=67
8cc#
8dd
8b#
=68
4cc#
8ff#
=69
4ff#
8cc#
=70
4cc#
8r
=71
8dd
8ee
8cc#
=72
4dd
8bb
=73
4bb
8dd
=74
4dd
8r
=75
8cc#
8dd#
8b#
=76
4cc#
8gg#
=77
8cc#
8dd#
8b#
=78
4cc#
8aa#
=79
4aa#
8gg#
=80
4ff#
16F#
16G#
=81
4A
16G#
16A
=82
4B
16A
16B
=83
4c#
16B
16c#
=84
8d
8c#
8B#
=85
4c#
16B
16c#
=86
8d
8c#
8B#
=87
4c#
8r
=88
8aa#
8gg#
8ff#
=89
4.cc#
=90
4.ee#
=91
4ff#
16B
16c#
=92
8d
8c#
8B#
=93
4c#
16B
16c#
=94
8d
8c#
8B#
=95
4c#
8r
=96
8ccc#
8bb
8aa
=97
4.ee
=98
4.gg#
=99
4aa
8r
=100
8aa#
8gg#
8ff#
=101
4.cc#
=102
4.ee#
=103
4ff#
16f#
16g#
=104
8a#
8g#
8f#
=105
4.dd
=106
4.cc#
=107
4a#
16F#
16G#
=108
8A#
8G#
8F#
=109
4.d
=110
4.c#
=111
4F#
16F#
16G#
=112
8A#
8G#
8F#
=113
8c#
8B
8A#
=114
8e
8d#
8c#
=115
4.g#
=116
4.f##
=117
4f#
16f#
16g#
=118
8a#
8g#
8f#
=119
8cc#
8b
8a#
=120
8ee
8dd#
8cc#
=121
4.gg#
=122
4.ff##
=123
4ff#
8r
=124
*M2/8
4r
=125
*M1/8
16dd#
16ee
=126
*M3/8
4ff#
16cc#
16dd#
=127
4ee
16b
16cc#
=128
4dd#
8cc#
=129
4b
8a#
=130
8g#
8cc#
8a#
=131
4b
8cc#
=132
8dd#
8gg#
8ee#
=133
4ff#
16cc#
16dd#
=134
4ee
8dd#
=135
4cc#
8b
=136
8b
8dd#
8cc#
=137
4b
16dd#
16ee
=138
4.ff#
=139
4.ff#[
=140
4.ff#]
=141
8ee
8ff#
8ff##
=142
4.aa
=143
8bb
8aa
8gg#
=144
4.aa
=145
8ff##
8ff#
8ee
=146
4.dd[
=147
8dd]
8b
8cc#
=148
4.dd[
=149
8dd]
8b
8cc#
=150
8dd
8b
8cc#
=151
8dd
8b
8cc#
=152
8dd
8b
8cc#
=153
8dd
8r
16b
16cc#
=154
4dd#
8cc#
=155
4b
8a#
=156
8g#
8cc#
8a#
=157
4b
8cc#
=158
8dd#
8gg#
8ee#
=159
4ff#
16cc#
16dd#
=160
4ee
8dd#
=161
4cc#
8b
=162
8b
8dd#
8cc#
=163
4b
16b
16cc#
=164
8dd#
8gg#
8ee#
=165
4ff#
8r
=166
8b
8dd#
8cc#
=167
4b
16b
16cc#
=168
8dd#
8gg#
8ee#
=169
4ff#
8r
=170
8b
8ff#
8a#
=171
4b
16g#
16a#
=172
8b
8dd#
8a#
=173
8g#
8b
8f#
=174
8e#
8g#
8d#
=175
4c#
8r
=176
8cc#
8dd#
8b#
=177
4cc#
8ff#
=178
4ff#
8cc#
=179
4cc#
8r
=180
8cc#
8dd#
8b#
=181
4cc#
8gg#
=182
4gg#
8cc#
=183
4cc#
8r
=184
8cc#
8dd#
8b#
=185
4cc#
8aa#
=186
8a#
8b
8a
=187
4a#
8ff#
=188
8f#
8g#
8e#
=189
4f#
8dd#
=190
4cc#
8a
=191
4a#
8r
=192
8cc#
8dd
8b#
=193
4cc#
8ff#
=194
4ff#
8cc#
=195
4cc#
8r
=196
8dd
8ee
8cc#
=197
4dd
8bb
=198
4bb
8dd
=199
4dd
8r
=200
8cc#
8dd#
8b#
=201
4cc#
8gg#
=202
8cc#
8dd#
8b#
=203
4cc#
8aa#
=204
4aa#
8gg#
=205
4ff#
16F#
16G#
=206
4A
16G#
16A
=207
4B
16A
16B
=208
4c#
16B
16c#
=209
8d
8c#
8B#
=210
4c#
16B
16c#
=211
8d
8c#
8B#
=212
4c#
8r
=213
8aa#
8gg#
8ff#
=214
4.cc#
=215
4.ee#
=216
4ff#
16B
16c#
=217
8d
8c#
8B#
=218
4c#
16B
16c#
=219
8d
8c#
8B#
=220
4c#
8r
=221
8ccc#
8bb
8aa
=222
4.ee
=223
4.gg#
=224
4aa
8r
=225
8aa#
8gg#
8ff#
=226
4.cc#
=227
4.ee#
=228
4ff#
16f#
16g#
=229
8a#
8g#
8f#
=230
4.dd
=231
4.cc#
=232
4a#
16F#
16G#
=233
8A#
8G#
8F#
=234
4.d
=235
4.c#
=236
4F#
16F#
16G#
=237
8A#
8G#
8F#
=238
8c#
8B
8A#
=239
8e
8d#
8c#
=240
4.g#
=241
4.f##
=242
4f#
16f#
16g#
=243
8a#
8g#
8f#
=244
8cc#
8b
8a#
=245
8ee
8dd#
8cc#
=246
4.gg#
=247
4.ff##
=248
4ff#
8r
=249
*M2/8
4r
=250
*M1/8
8r
=251
*M3/8
4.ff#
=252
4.ee#
=253
4ee
8r
=254
4.r
=255
4.ee
=256
4.dd#
=257
4dd
8r
=258
4.r
=259
8b
8a
8f##
=260
4dd
8dd
=261
8b
8a
8f##
=262
4dd
8dd
=263
4dd
8ee
=264
4ee
8cc#
=265
4cc#
8dd
=266
4dd
8b
=267
8b
8a
8f##
=268
4dd
8dd
=269
8b
8a
8f##
=270
4dd
8dd
=271
4dd
8aa
=272
4aa
8cc#
=273
4cc#
8dd
=274
4dd
8b
=275
8b
8a
8f##
=276
4dd
8dd
=277
4.dd
=278
4.g#
=279
8b#
8b
8a
=280
4ee
8ee
=281
4.ee
=282
4.a#
=283
8dd
8cc#
8b
=284
4ff#
8ff#
=285
4.ff#
=286
4.b#
=287
8cc#
8dd
8cc#
=288
8dd
8r
8dd
=289
8cc#
8dd
8cc#
=290
8dd
8r
8dd
=291
8cc#
8dd
8cc#
=292
8gg#
8r
8gg#
=293
8gg#
8r
8gg#
=294
8gg#
8r
8gg#
=295
8gg#
8aa#
8gg#
=296
8ff#
8gg#
8ff#
=297
8ee#
8ff#
8ee#
=298
8dd#
8ee#
8dd#
=299
8dd#
8ee
8dd#
=300
8ee
8r
8ee
=301
8dd#
8ee
8dd#
=302
8ee
8r
8ee
=303
8dd#
8ee
8dd#
=304
8ee#
8r
8ee#
=305
8dd##
8ee#
8dd##
=306
8ee#
8r
8ee#
=307
8dd##
8ee#
8ee
=308
8bb
8r
8bb
=309
8bb
8r
8bb
=310
8bb
8r
8bb
=311
8bb
8ccc#
8bb
=312
8aa
8bb
8aa
=313
8gg#
8aa
8gg#
=314
8ff#
8gg#
8ff#
=315
8ee
8ff#
8ee
=316
8dd#
8ee
8dd#
=317
8cc#
8dd#
8cc#
=318
8ff#
8gg#
8ff#
=319
4.r
=320
8r
8r
16dd#
16ee
=321
4ff#
16cc#
16dd#
=322
4ee
16b
16cc#
=323
4dd#
8cc#
=324
4b
8a#
=325
8g#
8cc#
8a#
=326
4b
8cc#
=327
8dd#
8gg#
8ee#
=328
4ff#
16cc#
16dd#
=329
4ee
8dd#
=330
4cc#
8b
=331
8b
8dd#
8cc#
=332
4b
16dd#
16ee
=333
4.ff#
=334
4.ff#[
=335
4.ff#]
=336
8ee
8ff#
8ff##
=337
4.aa
=338
8bb
8aa
8gg#
=339
4.aa
=340
8ff##
8ff#
8ee
=341
4.dd[
=342
8dd]
8b
8cc#
=343
4.dd[
=344
8dd]
8b
8cc#
=345
4.dd
=346
8ee
8dd
8cc#
=347
4.dd
=348
8ff##
8ff##
8aa
=349
4.bb
=350
8bb#
8bb
8aa
=351
4.ff##[
=352
8ff##]
8ee
8ff#
=353
4.ff##[
=354
8ff##]
8ee
8ff#
=355
8ff##
8ee
8ff#
=356
8ff##
8ee
8ff#
=357
8ff##
8ee
8ff#
=358
8ff##
8r
16ee
16ff#
=359
4gg#
8ff#
=360
4ee
8dd#
=361
8cc#
8ff#
8dd#
=362
4ee
8ff#
=363
8gg#
8ccc#
8aa#
=364
4bb
16ff#
16gg#
=365
4aa
8gg#
=366
4ff#
8ee
=367
8ee
8gg#
8ff#
=368
4ee
16ee
16ff#
=369
8gg#
8ccc#
8aa#
=370
4bb
8r
=371
8ee
8gg#
8ff#
=372
4ee
16ee
16ff#
=373
8gg#
8ccc#
8aa#
=374
4bb
8r
=375
8ee
8bb
8dd#
=376
4ee
16c#
16d#
=377
8e
8g#
8d#
=378
8c#
8e
8B
=379
8A#
8c#
8G#
=380
4F#
8r
=381
8ff#
8gg#
8ee#
=382
4ff#
8bb
=383
4bb
8ff#
=384
4ff#
8r
=385
8ff#
8gg#
8ee#
=386
4ff#
8ccc#
=387
4ccc#
8ff#
=388
4ff#
8r
=389
8ff#
8gg#
8ee#
=390
4ff#
8ddd#
=391
8dd#
8ee
8dd
=392
4dd#
8bb
=393
8b
8cc#
8a#
=394
4b
8gg#
=395
4ff#
8dd
=396
4dd#
8r
=397
8ff#
8ff##
8ee#
=398
4ff#
8bb
=399
4bb
8ff#
=400
4ff#
8r
=401
8ff##
8aa
8ff#
=402
4ff##
8eee
=403
4eee
8ff##
=404
4ff##
8r
=405
8ff#
8gg#
8ee#
=406
4ff#
8ccc#
=407
8ff#
8gg#
8ee#
=408
4ff#
8ddd#
=409
4ddd#
8ccc#
=410
4bb
16B
16c#
=411
4d
16c#
16d
=412
4e
16d
16e
=413
4f#
16e
16f#
=414
8f##
8f#
8e#
=415
4f#
16e
16f#
=416
8f##
8f#
8e#
=417
4f#
8r
=418
8ddd#
8ccc#
8bb
=419
4.ff#
=420
4.aa#
=421
4bb
16e
16f#
=422
8f##
8f#
8e#
=423
4f#
16e
16f#
=424
8f##
8f#
8e#
=425
4f#
8r
=426
8fff#
8eee
8ddd
=427
4.aa
=428
4.ccc#
=429
4ddd
8r
=430
8ddd#
8ccc#
8bb
=431
4.ff#
=432
4.aa#
=433
4bb
16B
16c#
=434
8d#
8c#
8B
=435
4.f##
=436
4.f#
=437
4d#
16BB
16C#
=438
8D#
8C#
8BB
=439
4.F##
=440
4.F#
=441
4BB
8r
=442
4.bb
==
*-
